docs/img/promo/promo-car-star-2.svg

<svg width="553" height="689" fill="none" xmlns="http://www.w3.org/2000/svg"><path d="M388.876 139.954l50.972 134.235a22.502 22.502 0 008.216 10.504l102.206 70.853c12.114 8.398 9.055 27.093-5.103 31.192l-114.491 33.149a22.5 22.5 0 00-12.187 8.725l-85.472 122.337c-8.39 12.008-26.939 9.01-31.119-5.03l-41.009-137.771a22.5 22.5 0 00-10.217-13.009l-108.167-63.182c-13.09-7.646-10.929-27.185 3.515-31.786l124.044-39.509a22.5 22.5 0 0011.955-9.052l75.887-115.078c7.857-11.914 25.904-9.92 30.97 3.422z" stroke="#fff" stroke-opacity=".6" stroke-width="5"/><path d="M370.061 210.99l34.451 90.728a12.5 12.5 0 004.565 5.836l70.071 48.576c5.192 3.599 3.881 11.611-2.187 13.368l-78.862 22.833a12.496 12.496 0 00-6.77 4.847l-57.88 82.844c-3.596 5.146-11.545 3.861-13.337-2.156l-27.87-93.632a12.502 12.502 0 00-5.676-7.227l-74.652-43.605c-5.609-3.276-4.683-11.65 1.507-13.622l85.238-27.149a12.502 12.502 0 006.641-5.029l51.488-78.078c3.367-5.106 11.102-4.252 13.273 1.466z" stroke="#fff" stroke-opacity=".8" stroke-width="5"/><path d="M397.111 78.757l67.879 178.76a22.508 22.508 0 008.216 10.504l137.978 95.652c12.113 8.397 9.054 27.092-5.104 31.192l-155.255 44.95a22.506 22.506 0 00-12.187 8.726L324.607 611.754c-8.39 12.008-26.939 9.009-31.118-5.031l-54.901-184.437a22.5 22.5 0 00-10.217-13.01L81.416 323.438c-13.09-7.645-10.928-27.185 3.516-31.785l167.825-53.454a22.509 22.509 0 0011.955-9.052L366.141 75.335c7.857-11.914 25.904-9.92 30.97 3.422z" stroke="#fff" stroke-opacity=".2" stroke-width="5"/></svg>

<svg width="553" height="689" viewBox="0 0 553 689" fill="none" xmlns="http://www.w3.org/2000/svg">
<path d="M388.876 139.954L439.848 274.189C441.462 278.44 444.327 282.102 448.064 284.693L550.27 355.546C562.384 363.944 559.325 382.639 545.167 386.738L430.676 419.887C425.736 421.317 421.435 424.396 418.489 428.612L333.017 550.949C324.627 562.957 306.078 559.959 301.898 545.919L260.889 408.148C259.259 402.672 255.606 398.021 250.672 395.139L142.505 331.957C129.415 324.311 131.576 304.772 146.02 300.171L270.064 260.662C274.967 259.1 279.186 255.906 282.019 251.61L357.906 136.532C365.763 124.618 383.81 126.612 388.876 139.954Z" stroke="white" stroke-opacity="0.6" stroke-width="5"/>
<path d="M370.061 210.99L404.512 301.718C405.409 304.08 407 306.114 409.077 307.554L479.148 356.13C484.34 359.729 483.029 367.741 476.961 369.498L398.099 392.331C395.355 393.125 392.965 394.836 391.329 397.178L333.449 480.022C329.853 485.168 321.904 483.883 320.112 477.866L292.242 384.234C291.336 381.192 289.307 378.608 286.566 377.007L211.914 333.402C206.305 330.126 207.231 321.752 213.421 319.78L298.659 292.631C301.382 291.763 303.726 289.989 305.3 287.602L356.788 209.524C360.155 204.418 367.89 205.272 370.061 210.99Z" stroke="white" stroke-opacity="0.8" stroke-width="5"/>
<path d="M397.111 78.7567L464.99 257.517C466.605 261.768 469.469 265.43 473.206 268.021L611.184 363.673C623.297 372.07 620.238 390.765 606.08 394.865L450.825 439.815C445.885 441.246 441.584 444.325 438.638 448.541L324.607 611.754C316.217 623.762 297.668 620.763 293.489 606.723L238.588 422.286C236.958 416.809 233.305 412.158 228.371 409.276L81.4164 323.438C68.3267 315.793 70.4877 296.253 84.9319 291.653L252.757 238.199C257.659 236.637 261.879 233.442 264.712 229.147L366.141 75.335C373.998 63.421 392.045 65.4149 397.111 78.7567Z" stroke="white" stroke-opacity="0.2" stroke-width="5"/>
</svg>
